X: 12571
T: Farewell To Philip Lane
R: reel
M: 4/4
K: Fmajor
AFFE FAdc|AFFG AG~G2|AFFE FGAc|dAcd AG~G2|
AFfA FAdc|AFFG AG~G2|AFFE FGAc|dAcd AG~G2||
Accd cAFG|AcAF GFFG|Accd cAFG|AGGF ~G2FG|
Accd cAFG|AcAF GFFG|Ac~c2 Ad~d2|dcAF ~G2FG||

